public/images/logos/bits-und-baeume-logo_CCBY-schauschau.cc.svg

<svg width="130" height="71" viewBox="0 0 130 71" fill="none" xmlns="http://www.w3.org/2000/svg">
<g clip-path="url(#clip0_175_2)">
<path d="M18.4074 60.4395H17.7656V70.9981H18.4074V60.4395Z" fill="#A1C854"/>
<path d="M17.7663 61.446C7.62546 60.8269 0 51.6683 0 39.9387C0 25.3749 8.99971 15.0876 17.7663 6.14258V61.446Z" fill="#C1D98D"/>
<path d="M23.9106 36.8696H30.0534V43.0145H23.9085L23.9106 36.8696ZM17.7656 12.2888V61.4473H23.9106V55.3003H30.0534V49.1564H36.1984V43.0115H42.3433V36.8665H36.1984V30.7236H30.0534V24.5777H23.9085V18.4327H30.0534V24.5777H36.1984V18.4327H30.0534V12.2878H17.7656V12.2888ZM30.0545 12.2888H36.1994V6.14391H30.0534L30.0545 12.2888ZM17.7656 6.14494H23.9106V0H17.7656V6.14494ZM36.1994 6.14494H42.3443V0H36.1994V6.14494Z" fill="#A1C854"/>
<path d="M63.3057 26.0142C63.3057 26.9897 63.1211 27.8511 62.752 28.5981C62.3828 29.3452 61.8862 29.9604 61.2622 30.4438C60.5239 31.0239 59.7329 31.437 58.8892 31.6831C58.0454 31.9204 56.9556 32.0391 55.6196 32.0391H49.9902V12.4087H55.1978C56.5952 12.4087 57.6411 12.457 58.3354 12.5537C59.0386 12.6416 59.7109 12.8569 60.3525 13.1997C61.0557 13.5776 61.5698 14.0742 61.895 14.6895C62.2202 15.2959 62.3828 16.0122 62.3828 16.8384C62.3828 17.7612 62.1367 18.5874 61.6445 19.3169C61.1611 20.0464 60.4888 20.6177 59.6274 21.0308V21.1362C60.7964 21.4526 61.7017 22.0327 62.3433 22.8765C62.9849 23.7114 63.3057 24.7573 63.3057 26.0142ZM59.667 17.2075C59.667 16.7329 59.5879 16.3242 59.4297 15.9814C59.2715 15.6299 59.0166 15.353 58.665 15.1509C58.2432 14.9136 57.7729 14.7686 57.2544 14.7158C56.7358 14.6631 56.0195 14.6367 55.1055 14.6367H52.6006V20.3848H55.5669C56.3843 20.3848 56.9863 20.3452 57.373 20.2661C57.7598 20.1782 58.1597 20.0024 58.5728 19.7388C58.9683 19.4839 59.2495 19.1499 59.4165 18.7368C59.5835 18.3237 59.667 17.814 59.667 17.2075ZM60.5898 26.1196C60.5898 25.3813 60.4844 24.7749 60.2734 24.3003C60.0625 23.8169 59.6362 23.4082 58.9946 23.0742C58.5815 22.8545 58.1289 22.7139 57.6367 22.6523C57.1533 22.5908 56.4634 22.5601 55.5669 22.5601H52.6006V29.811H54.7231C55.8657 29.811 56.7666 29.7583 57.4258 29.6528C58.085 29.5474 58.665 29.3232 59.166 28.9805C59.6582 28.6377 60.0186 28.251 60.2471 27.8203C60.4756 27.3809 60.5898 26.814 60.5898 26.1196Z" fill="black"/>
<path d="M68.2495 32.0391H65.771V17.313H68.2495V32.0391ZM68.4209 14.8477H65.5996V12.2769H68.4209V14.8477Z" fill="black"/>
<path d="M76.3442 32.3291C74.9907 32.3291 73.936 31.9468 73.1802 31.1821C72.4243 30.4087 72.0464 29.1914 72.0464 27.5303V19.3696H70.3721V17.313H72.0464V13.0811H74.5249V17.313H79.0864V19.3696H74.5249V26.3701C74.5249 27.1172 74.5381 27.6929 74.5645 28.0972C74.5908 28.5015 74.6919 28.8794 74.8677 29.231C75.0171 29.5386 75.2588 29.7715 75.5928 29.9297C75.9268 30.0791 76.3794 30.1538 76.9507 30.1538C77.355 30.1538 77.7461 30.0967 78.124 29.9824C78.502 29.8594 78.7744 29.7583 78.9414 29.6792H79.0864V31.9072C78.6206 32.0391 78.146 32.1401 77.6626 32.2104C77.188 32.2896 76.7485 32.3291 76.3442 32.3291Z" fill="black"/>
<path d="M84.9136 32.395C83.9292 32.395 83.0063 32.2632 82.145 31.9995C81.2925 31.7358 80.585 31.4546 80.0225 31.1558V28.374H80.1543C80.3652 28.541 80.6113 28.7256 80.8926 28.9277C81.1826 29.1299 81.5649 29.3408 82.0396 29.5605C82.4614 29.7539 82.9229 29.9253 83.4238 30.0747C83.9336 30.2241 84.4609 30.2988 85.0059 30.2988C85.4014 30.2988 85.8232 30.2549 86.2715 30.167C86.7197 30.0703 87.0537 29.9517 87.2734 29.811C87.5811 29.6089 87.8008 29.3936 87.9326 29.165C88.0732 28.9365 88.1436 28.5938 88.1436 28.1367C88.1436 27.5479 87.981 27.104 87.6558 26.8052C87.3394 26.5063 86.7725 26.2559 85.9551 26.0537C85.6387 25.9746 85.2256 25.8823 84.7158 25.7769C84.2061 25.6714 83.7358 25.5571 83.3052 25.4341C82.1802 25.1089 81.3628 24.6079 80.853 23.9312C80.3433 23.2456 80.0884 22.4194 80.0884 21.4526C80.0884 20.1255 80.5894 19.0444 81.5913 18.2095C82.5933 17.3745 83.9248 16.957 85.5859 16.957C86.4033 16.957 87.2251 17.0581 88.0513 17.2603C88.8774 17.4624 89.5718 17.7173 90.1343 18.0249V20.6748H90.0024C89.3696 20.1738 88.6621 19.7783 87.8799 19.4883C87.1064 19.1982 86.3242 19.0532 85.5332 19.0532C84.7158 19.0532 84.0259 19.2246 83.4634 19.5674C82.9009 19.9102 82.6196 20.4287 82.6196 21.123C82.6196 21.7383 82.7866 22.1997 83.1206 22.5073C83.4546 22.8062 83.9907 23.0522 84.729 23.2456C85.0981 23.3423 85.5068 23.439 85.9551 23.5356C86.4121 23.6235 86.8911 23.729 87.3921 23.8521C88.4819 24.1245 89.2993 24.5771 89.8442 25.21C90.3979 25.8428 90.6748 26.7041 90.6748 27.7939C90.6748 28.4268 90.5474 29.0288 90.2925 29.6001C90.0464 30.1626 89.6816 30.646 89.1982 31.0503C88.6709 31.4897 88.0732 31.8237 87.4053 32.0522C86.7461 32.2808 85.9155 32.395 84.9136 32.395Z" fill="black"/>
<path d="M118.677 32.0391H115.302L112.612 29.231C111.716 30.3735 110.793 31.1953 109.844 31.6963C108.903 32.1973 107.835 32.4478 106.64 32.4478C104.865 32.4478 103.397 31.916 102.237 30.8525C101.085 29.7803 100.51 28.3784 100.51 26.647C100.51 25.8911 100.615 25.2188 100.826 24.6299C101.037 24.041 101.318 23.5093 101.67 23.0347C102.013 22.5776 102.408 22.1777 102.856 21.835C103.305 21.4834 103.735 21.1802 104.148 20.9253C103.261 20.3276 102.597 19.6992 102.158 19.04C101.718 18.3809 101.499 17.5503 101.499 16.5483C101.499 15.9243 101.622 15.3486 101.868 14.8213C102.123 14.2852 102.452 13.8149 102.856 13.4106C103.278 12.9976 103.823 12.6592 104.491 12.3955C105.168 12.1318 105.906 12 106.706 12C108.165 12 109.356 12.3867 110.279 13.1602C111.202 13.9248 111.663 14.896 111.663 16.0737C111.663 16.5044 111.606 16.9526 111.492 17.4185C111.386 17.8755 111.188 18.3193 110.898 18.75C110.608 19.1807 110.226 19.585 109.751 19.9629C109.286 20.3408 108.662 20.6704 107.879 20.9517L112.52 25.7241C112.643 25.0034 112.718 24.2212 112.744 23.3774C112.771 22.5249 112.784 21.4175 112.784 20.0552H115.354V21.3208C115.354 22.1646 115.245 23.1182 115.025 24.1816C114.814 25.2363 114.462 26.2383 113.97 27.1875L118.677 32.0391ZM111.465 28.0708L105.401 21.8613C105.181 22.002 104.961 22.1689 104.742 22.3623C104.522 22.5557 104.28 22.8457 104.017 23.2324C103.806 23.54 103.617 23.9443 103.45 24.4453C103.292 24.9375 103.212 25.4604 103.212 26.0142C103.212 27.2622 103.582 28.2905 104.32 29.0991C105.067 29.8989 106.073 30.2988 107.339 30.2988C108.183 30.2988 108.943 30.123 109.62 29.7715C110.296 29.4111 110.912 28.8442 111.465 28.0708ZM106.64 20.0156C107.132 19.8486 107.537 19.6245 107.853 19.3433C108.178 19.062 108.429 18.7544 108.604 18.4204C108.763 18.1128 108.881 17.7876 108.96 17.4448C109.04 17.1021 109.079 16.7329 109.079 16.3374C109.079 15.4849 108.829 14.8257 108.328 14.3599C107.835 13.894 107.26 13.6611 106.601 13.6611C105.818 13.6611 105.203 13.9248 104.755 14.4521C104.307 14.9795 104.083 15.6387 104.083 16.4297C104.083 16.7812 104.113 17.0845 104.175 17.3394C104.245 17.5854 104.386 17.8755 104.597 18.2095C104.781 18.4819 105.036 18.772 105.361 19.0796C105.695 19.3872 106.122 19.6992 106.64 20.0156Z" fill="black"/>
<path d="M63.3057 52.0142C63.3057 52.9897 63.1211 53.8511 62.752 54.5981C62.3828 55.3452 61.8862 55.9604 61.2622 56.4438C60.5239 57.0239 59.7329 57.437 58.8892 57.6831C58.0454 57.9204 56.9556 58.0391 55.6196 58.0391H49.9902V38.4087H55.1978C56.5952 38.4087 57.6411 38.457 58.3354 38.5537C59.0386 38.6416 59.7109 38.8569 60.3525 39.1997C61.0557 39.5776 61.5698 40.0742 61.895 40.6895C62.2202 41.2959 62.3828 42.0122 62.3828 42.8384C62.3828 43.7612 62.1367 44.5874 61.6445 45.3169C61.1611 46.0464 60.4888 46.6177 59.6274 47.0308V47.1362C60.7964 47.4526 61.7017 48.0327 62.3433 48.8765C62.9849 49.7114 63.3057 50.7573 63.3057 52.0142ZM59.667 43.2075C59.667 42.7329 59.5879 42.3242 59.4297 41.9814C59.2715 41.6299 59.0166 41.353 58.665 41.1509C58.2432 40.9136 57.7729 40.7686 57.2544 40.7158C56.7358 40.6631 56.0195 40.6367 55.1055 40.6367H52.6006V46.3848H55.5669C56.3843 46.3848 56.9863 46.3452 57.373 46.2661C57.7598 46.1782 58.1597 46.0024 58.5728 45.7388C58.9683 45.4839 59.2495 45.1499 59.4165 44.7368C59.5835 44.3237 59.667 43.814 59.667 43.2075ZM60.5898 52.1196C60.5898 51.3813 60.4844 50.7749 60.2734 50.3003C60.0625 49.8169 59.6362 49.4082 58.9946 49.0742C58.5815 48.8545 58.1289 48.7139 57.6367 48.6523C57.1533 48.5908 56.4634 48.5601 55.5669 48.5601H52.6006V55.811H54.7231C55.8657 55.811 56.7666 55.7583 57.4258 55.6528C58.085 55.5474 58.665 55.3232 59.166 54.9805C59.6582 54.6377 60.0186 54.251 60.2471 53.8203C60.4756 53.3809 60.5898 52.814 60.5898 52.1196Z" fill="black"/>
<path d="M73.9448 54.4136V50.3267C73.356 50.3794 72.6089 50.4541 71.7036 50.5508C70.8071 50.6387 70.082 50.7661 69.5283 50.9331C68.8691 51.1353 68.3242 51.4473 67.8936 51.8691C67.4629 52.2822 67.2476 52.8623 67.2476 53.6094C67.2476 54.4531 67.4849 55.0903 67.9595 55.521C68.4341 55.9517 69.1284 56.167 70.0425 56.167C70.8247 56.167 71.5322 56 72.165 55.666C72.7979 55.3232 73.3911 54.9058 73.9448 54.4136ZM73.9448 56.4702C73.7427 56.6196 73.4702 56.8306 73.1274 57.103C72.7935 57.3667 72.4683 57.5776 72.1519 57.7358C71.7124 57.9644 71.2861 58.1401 70.873 58.2632C70.4688 58.3862 69.8975 58.4478 69.1592 58.4478C68.5527 58.4478 67.9771 58.3335 67.4321 58.105C66.8872 57.8765 66.4082 57.5557 65.9951 57.1426C65.5996 56.7383 65.2832 56.2417 65.0459 55.6528C64.8086 55.0552 64.6899 54.4268 64.6899 53.7676C64.6899 52.748 64.9053 51.8823 65.3359 51.1704C65.7666 50.4497 66.4478 49.8784 67.3794 49.4565C68.2056 49.0786 69.1812 48.8193 70.3062 48.6787C71.4312 48.5293 72.644 48.4194 73.9448 48.3491V47.8745C73.9448 47.2944 73.8569 46.8286 73.6812 46.4771C73.5054 46.1167 73.2593 45.8398 72.9429 45.6465C72.6265 45.4443 72.2397 45.3125 71.7827 45.251C71.3257 45.1807 70.8555 45.1455 70.3721 45.1455C69.8008 45.1455 69.1284 45.2334 68.355 45.4092C67.5815 45.5762 66.8081 45.8223 66.0347 46.1475H65.8896V43.6294C66.3467 43.4976 67.0015 43.3525 67.854 43.1943C68.7065 43.0361 69.5503 42.957 70.3853 42.957C71.396 42.957 72.2485 43.0361 72.9429 43.1943C73.6372 43.3525 74.2612 43.6382 74.8149 44.0513C75.3511 44.4556 75.751 44.9785 76.0146 45.6201C76.2783 46.2617 76.4102 47.0439 76.4102 47.9668V58.0391H73.9448V56.4702ZM74.9336 40.8477H72.2837V38.2769H74.9336V40.8477ZM69.4888 40.8477H66.8389V38.2769H69.4888V40.8477Z" fill="black"/>
<path d="M91.3735 58.0391H88.895V56.4043C88.1304 57.0723 87.4053 57.582 86.7197 57.9336C86.0342 58.2764 85.2695 58.4478 84.4258 58.4478C83.7842 58.4478 83.1777 58.3423 82.6064 58.1313C82.0439 57.9204 81.5518 57.5864 81.1299 57.1294C80.708 56.6724 80.3784 56.0967 80.1411 55.4023C79.9126 54.708 79.7983 53.8643 79.7983 52.8711V43.313H82.2769V51.6978C82.2769 52.48 82.3032 53.1304 82.356 53.6489C82.4175 54.1587 82.5493 54.6069 82.7515 54.9937C82.9536 55.3716 83.2261 55.6484 83.5688 55.8242C83.9204 56 84.4214 56.0879 85.0718 56.0879C85.6782 56.0879 86.3242 55.9165 87.0098 55.5737C87.6953 55.231 88.3237 54.8091 88.895 54.3081V43.313H91.3735V58.0391Z" fill="black"/>
<path d="M111.676 58.0391V49.5225C111.676 48.8457 111.65 48.2217 111.597 47.6504C111.544 47.0703 111.435 46.6177 111.268 46.2925C111.092 45.9409 110.841 45.6816 110.516 45.5146C110.191 45.3477 109.751 45.2642 109.198 45.2642C108.688 45.2642 108.139 45.4224 107.55 45.7388C106.97 46.0464 106.368 46.4946 105.744 47.0835C105.752 47.2329 105.761 47.4131 105.77 47.624C105.788 47.8262 105.796 48.0679 105.796 48.3491V58.0391H103.318V49.5225C103.318 48.8457 103.292 48.2217 103.239 47.6504C103.186 47.0703 103.076 46.6177 102.909 46.2925C102.733 45.9409 102.483 45.6816 102.158 45.5146C101.833 45.3477 101.393 45.2642 100.839 45.2642C100.303 45.2642 99.7407 45.4312 99.1519 45.7651C98.563 46.0991 97.9917 46.5254 97.438 47.0439V58.0391H94.9595V43.313H97.438V44.9478C98.0884 44.2974 98.73 43.7964 99.3628 43.4448C100.004 43.0845 100.708 42.9043 101.472 42.9043C102.342 42.9043 103.111 43.1021 103.779 43.4976C104.456 43.8931 104.97 44.5435 105.322 45.4487C106.069 44.6138 106.798 43.981 107.51 43.5503C108.222 43.1196 108.996 42.9043 109.831 42.9043C110.463 42.9043 111.039 43.0054 111.558 43.2075C112.076 43.4009 112.529 43.7173 112.916 44.1567C113.311 44.605 113.614 45.1631 113.825 45.8311C114.045 46.499 114.155 47.3384 114.155 48.3491V58.0391H111.676Z" fill="black"/>
<path d="M124.029 58.3818C121.683 58.3818 119.859 57.7227 118.558 56.4043C117.266 55.0771 116.62 53.1963 116.62 50.7617C116.62 48.3623 117.249 46.4551 118.505 45.04C119.762 43.6162 121.406 42.9043 123.436 42.9043C124.35 42.9043 125.159 43.0361 125.862 43.2998C126.565 43.5635 127.18 43.9766 127.708 44.5391C128.235 45.1016 128.639 45.7915 128.92 46.6089C129.202 47.4175 129.342 48.4106 129.342 49.5884V50.9331H119.138C119.138 52.647 119.569 53.9565 120.43 54.8618C121.292 55.7671 122.482 56.2197 124.003 56.2197C124.548 56.2197 125.08 56.1582 125.598 56.0352C126.125 55.9121 126.6 55.7539 127.022 55.5605C127.47 55.3584 127.848 55.165 128.156 54.9805C128.463 54.7871 128.718 54.6069 128.92 54.4399H129.065V57.1426C128.775 57.2568 128.415 57.4019 127.984 57.5776C127.554 57.7446 127.167 57.8765 126.824 57.9731C126.341 58.105 125.901 58.2061 125.506 58.2764C125.119 58.3467 124.627 58.3818 124.029 58.3818ZM126.93 49.0347C126.912 48.3667 126.833 47.791 126.692 47.3076C126.552 46.8242 126.35 46.4155 126.086 46.0815C125.796 45.7124 125.422 45.4312 124.965 45.2378C124.517 45.0444 123.959 44.9478 123.291 44.9478C122.632 44.9478 122.069 45.0488 121.604 45.251C121.146 45.4443 120.729 45.73 120.351 46.1079C119.982 46.4946 119.701 46.9253 119.507 47.3999C119.314 47.8657 119.191 48.4106 119.138 49.0347H126.93Z" fill="black"/>
</g>
<defs>
<clipPath id="clip0_175_2">
<rect width="130" height="70.89" fill="white"/>
</clipPath>
</defs>
</svg>

<svg xmlns="http://www.w3.org/2000/svg" width="130" height="71" fill="none"><g clip-path="url(#a)"><path fill="#A1C854" d="M18.407 60.44h-.641v10.558h.641V60.44Z"/><path fill="#C1D98D" d="M17.766 61.446C7.626 60.826 0 51.668 0 39.939 0 25.375 9 15.088 17.766 6.143v55.303Z"/><path fill="#A1C854" d="M23.91 36.87h6.143v6.145h-6.145l.003-6.145Zm-6.144-24.581v49.158h6.145V55.3h6.142v-6.144h6.145v-6.145h6.145v-6.145h-6.145v-6.142h-6.145v-6.146h-6.145v-6.145h6.145v6.145h6.145v-6.145h-6.145v-6.145H17.766Zm12.289 0h6.144V6.144h-6.146l.002 6.145Zm-12.29-6.144h6.146V0h-6.145v6.145Zm18.434 0h6.145V0H36.2v6.145Z"/><path fill="#000" d="M63.306 26.014c0 .976-.185 1.837-.554 2.584a5.22 5.22 0 0 1-1.49 1.846 6.99 6.99 0 0 1-2.373 1.24c-.844.236-1.933.355-3.27.355H49.99V12.41h5.208c1.397 0 2.443.048 3.137.145a5.766 5.766 0 0 1 2.017.646c.704.378 1.218.874 1.543 1.49.325.606.488 1.322.488 2.148 0 .923-.246 1.75-.739 2.479-.483.73-1.155 1.3-2.017 1.714v.105c1.17.317 2.075.897 2.716 1.74.642.835.963 1.881.963 3.138Zm-3.639-8.806c0-.475-.08-.884-.237-1.227a1.79 1.79 0 0 0-.765-.83 3.584 3.584 0 0 0-1.41-.435c-.52-.053-1.236-.08-2.15-.08h-2.504v5.749h2.966c.817 0 1.42-.04 1.806-.119a3.827 3.827 0 0 0 1.2-.527c.395-.255.676-.59.843-1.002.168-.413.251-.923.251-1.53Zm.923 8.912c0-.739-.106-1.345-.317-1.82-.21-.483-.637-.892-1.278-1.226a3.895 3.895 0 0 0-1.358-.422c-.484-.061-1.174-.092-2.07-.092H52.6v7.251h2.122c1.143 0 2.044-.053 2.703-.158.659-.106 1.239-.33 1.74-.672.492-.343.853-.73 1.081-1.16.229-.44.343-1.007.343-1.701ZM68.25 32.04H65.77V17.312h2.478v14.726Zm.17-17.192H65.6v-2.571h2.82v2.57ZM76.344 32.33c-1.353 0-2.408-.383-3.164-1.148-.756-.773-1.134-1.99-1.134-3.652v-8.16h-1.674v-2.057h1.674v-4.232h2.479v4.232h4.561v2.057h-4.561v7c0 .747.013 1.323.04 1.727.026.404.127.782.303 1.134.15.308.39.54.725.699.334.15.786.224 1.358.224a4.03 4.03 0 0 0 1.173-.172c.378-.123.65-.224.817-.303h.145v2.228c-.465.132-.94.233-1.423.303-.475.08-.914.12-1.319.12ZM84.914 32.395a9.41 9.41 0 0 1-2.769-.396c-.852-.263-1.56-.544-2.123-.843v-2.782h.132c.211.167.457.352.739.554.29.202.672.413 1.147.633.421.193.883.364 1.384.514.51.15 1.037.224 1.582.224.395 0 .817-.044 1.266-.132.448-.097.782-.215 1.001-.356.308-.202.528-.417.66-.646.14-.229.21-.571.21-1.028 0-.59-.162-1.033-.487-1.332-.317-.299-.884-.55-1.7-.751-.317-.08-.73-.172-1.24-.277-.51-.106-.98-.22-1.41-.343-1.126-.325-1.943-.826-2.453-1.503-.51-.685-.765-1.512-.765-2.478 0-1.328.501-2.409 1.503-3.244 1.002-.834 2.334-1.252 3.995-1.252.817 0 1.64.101 2.465.303.826.202 1.52.457 2.083.765v2.65h-.132a7.714 7.714 0 0 0-2.122-1.187 6.636 6.636 0 0 0-2.347-.435c-.817 0-1.507.172-2.07.514-.562.343-.843.862-.843 1.556 0 .615.167 1.077.5 1.384.335.3.87.545 1.609.739.37.096.778.193 1.226.29.457.087.936.193 1.437.316 1.09.273 1.907.725 2.452 1.358.554.633.83 1.494.83 2.584 0 .633-.127 1.235-.382 1.806a3.917 3.917 0 0 1-1.094 1.45 5.612 5.612 0 0 1-1.793 1.002c-.659.229-1.49.343-2.491.343ZM118.677 32.04h-3.375l-2.69-2.809c-.896 1.142-1.819 1.964-2.768 2.465-.941.501-2.009.752-3.204.752-1.775 0-3.243-.532-4.403-1.596-1.152-1.072-1.727-2.474-1.727-4.205 0-.756.105-1.428.316-2.017.211-.589.492-1.12.844-1.595a6.145 6.145 0 0 1 1.186-1.2c.449-.352.879-.655 1.292-.91-.887-.597-1.551-1.226-1.99-1.885-.44-.66-.659-1.49-.659-2.492 0-.624.123-1.2.369-1.727a5.039 5.039 0 0 1 .988-1.41c.422-.413.967-.752 1.635-1.015a6.05 6.05 0 0 1 2.215-.396c1.459 0 2.65.387 3.573 1.16.923.765 1.384 1.736 1.384 2.914 0 .43-.057.879-.171 1.345-.106.456-.304.9-.594 1.331-.29.43-.672.835-1.147 1.213-.465.378-1.089.707-1.872.989l4.641 4.772c.123-.72.198-1.503.224-2.347.027-.852.04-1.96.04-3.322h2.57v1.266c0 .844-.109 1.797-.329 2.86a11.33 11.33 0 0 1-1.055 3.006l4.707 4.852Zm-7.212-3.97-6.064-6.209c-.22.141-.44.308-.659.501-.22.194-.462.484-.725.87-.211.308-.4.712-.567 1.213a5.103 5.103 0 0 0-.238 1.57c0 1.247.37 2.276 1.108 3.084.747.8 1.753 1.2 3.019 1.2.844 0 1.604-.176 2.281-.527.676-.36 1.292-.928 1.845-1.701Zm-4.825-8.054c.492-.167.897-.391 1.213-.673.325-.281.576-.589.751-.923.159-.307.277-.632.356-.975.08-.343.119-.712.119-1.108 0-.852-.25-1.511-.751-1.977a2.434 2.434 0 0 0-1.727-.699c-.783 0-1.398.264-1.846.791-.448.527-.672 1.187-.672 1.978 0 .351.03.654.092.91.07.245.211.535.422.87.184.272.439.562.764.87.334.307.761.62 1.279.936ZM63.306 52.014c0 .976-.185 1.837-.554 2.584a5.22 5.22 0 0 1-1.49 1.846 6.99 6.99 0 0 1-2.373 1.24c-.844.236-1.933.355-3.27.355H49.99V38.41h5.208c1.397 0 2.443.048 3.137.145a5.766 5.766 0 0 1 2.017.646c.704.378 1.218.874 1.543 1.49.325.606.488 1.322.488 2.148 0 .923-.246 1.75-.739 2.479-.483.73-1.155 1.3-2.017 1.714v.105c1.17.317 2.075.897 2.716 1.74.642.835.963 1.881.963 3.138Zm-3.639-8.806c0-.475-.08-.884-.237-1.227a1.79 1.79 0 0 0-.765-.83 3.584 3.584 0 0 0-1.41-.435c-.52-.053-1.236-.08-2.15-.08h-2.504v5.749h2.966c.817 0 1.42-.04 1.806-.119a3.827 3.827 0 0 0 1.2-.527c.395-.255.676-.59.843-1.002.168-.413.251-.923.251-1.53Zm.923 8.912c0-.739-.106-1.345-.317-1.82-.21-.483-.637-.892-1.278-1.226a3.895 3.895 0 0 0-1.358-.422c-.484-.061-1.174-.092-2.07-.092H52.6v7.251h2.122c1.143 0 2.044-.053 2.703-.158.659-.106 1.239-.33 1.74-.672.492-.343.853-.73 1.081-1.16.229-.44.343-1.007.343-1.701ZM73.945 54.414v-4.087c-.589.052-1.336.127-2.241.224-.897.088-1.622.215-2.176.382-.659.202-1.204.514-1.634.936-.431.413-.646.993-.646 1.74 0 .844.237 1.481.712 1.912.474.43 1.168.646 2.083.646.782 0 1.49-.167 2.122-.501a9.442 9.442 0 0 0 1.78-1.252Zm0 2.056c-.202.15-.475.36-.818.633-.334.264-.659.475-.975.633a7.3 7.3 0 0 1-1.279.527c-.404.123-.976.185-1.714.185a4.44 4.44 0 0 1-3.164-1.305 4.511 4.511 0 0 1-.95-1.49 5.061 5.061 0 0 1-.355-1.885c0-1.02.215-1.886.646-2.598.43-.72 1.112-1.292 2.043-1.714.827-.377 1.802-.637 2.927-.777 1.125-.15 2.338-.26 3.639-.33v-.474c0-.58-.088-1.046-.264-1.398a1.945 1.945 0 0 0-.738-.83c-.317-.203-.703-.334-1.16-.396a9.266 9.266 0 0 0-1.41-.105c-.572 0-1.245.087-2.018.263-.773.167-1.547.413-2.32.739h-.145v-2.519c.457-.131 1.111-.276 1.964-.435a13.85 13.85 0 0 1 2.531-.237c1.011 0 1.864.08 2.558.237a4.921 4.921 0 0 1 1.872.857c.536.405.936.927 1.2 1.57.263.64.395 1.423.395 2.346v10.072h-2.465V56.47Zm.989-15.622h-2.65v-2.571h2.65v2.57Zm-5.445 0h-2.65v-2.571h2.65v2.57ZM91.374 58.04h-2.479v-1.636c-.765.668-1.49 1.178-2.175 1.53-.686.342-1.45.514-2.294.514a5.21 5.21 0 0 1-1.82-.317 3.808 3.808 0 0 1-1.476-1.002c-.422-.457-.752-1.032-.989-1.727-.228-.694-.343-1.538-.343-2.53v-9.559h2.479v8.385c0 .782.026 1.432.079 1.95.062.51.193.959.395 1.346.203.378.475.654.818.83.351.176.852.264 1.503.264.606 0 1.252-.172 1.938-.514a8.846 8.846 0 0 0 1.885-1.266V43.313h2.479v14.726ZM111.676 58.04v-8.517c0-.677-.026-1.301-.079-1.873-.053-.58-.162-1.032-.329-1.358a1.7 1.7 0 0 0-.752-.777c-.325-.167-.765-.25-1.318-.25-.51 0-1.059.157-1.648.474-.58.307-1.182.756-1.806 1.345.008.149.017.33.026.54.018.202.026.444.026.725v9.69h-2.478v-8.517c0-.676-.026-1.3-.079-1.872-.053-.58-.163-1.032-.33-1.358a1.699 1.699 0 0 0-.751-.777c-.325-.167-.765-.25-1.319-.25-.536 0-1.098.166-1.687.5-.589.334-1.16.76-1.714 1.279v10.995H94.96V43.313h2.478v1.635c.65-.65 1.292-1.152 1.925-1.503a4.235 4.235 0 0 1 2.109-.54c.87 0 1.639.197 2.307.593.677.395 1.191 1.046 1.543 1.95.747-.834 1.476-1.467 2.188-1.898a4.404 4.404 0 0 1 2.321-.646c.632 0 1.208.101 1.727.303.518.194.971.51 1.358.95.395.448.698 1.006.909 1.674.22.668.33 1.507.33 2.518v9.69h-2.479ZM124.029 58.382c-2.346 0-4.17-.66-5.471-1.978-1.292-1.327-1.938-3.208-1.938-5.642 0-2.4.629-4.307 1.885-5.722 1.257-1.424 2.901-2.136 4.931-2.136.914 0 1.723.132 2.426.396a4.832 4.832 0 0 1 1.846 1.24c.527.562.931 1.252 1.212 2.069.282.808.422 1.802.422 2.98v1.344h-10.204c0 1.714.431 3.023 1.292 3.929.862.905 2.052 1.358 3.573 1.358.545 0 1.077-.062 1.595-.185a7.526 7.526 0 0 0 1.424-.474c.448-.203.826-.396 1.134-.58.307-.194.562-.374.764-.541h.145v2.703c-.29.114-.65.259-1.081.435-.43.167-.817.298-1.16.395-.483.132-.923.233-1.318.303-.387.07-.879.106-1.477.106Zm2.901-9.347c-.018-.668-.097-1.244-.238-1.727a3.542 3.542 0 0 0-.606-1.227 2.77 2.77 0 0 0-1.121-.843c-.448-.194-1.006-.29-1.674-.29-.659 0-1.222.1-1.687.303a3.924 3.924 0 0 0-1.253.857c-.369.387-.65.817-.844 1.292-.193.466-.316 1.01-.369 1.635h7.792Z"/></g><defs><clipPath id="a"><path fill="#fff" d="M0 0h130v70.89H0z"/></clipPath></defs></svg>
